X: 77
T: Lillibulero
O: "In the Beggars Opera")
%R: jig
B: "The Hibernian Muse" p.48 #1
F: http://imslp.org/wiki/The_Hibernian_Muse_%28Various%29
Z: 2015 John Chambers <jc:trillian.mit.edu>
P: No. LXXVII.
M: 6/8
L: 1/8
K: G
% - - - - - - - - - - - - - - - - - - - - - - - - - - - - -
V: 1
G |\
G>AG B2B | A>BA c3  | (B/c/d)G c2B | AGF G2G |\
G>AG B2B | A>BA c2z | (B/c/d)G c2B | AGF G2 |]
f |\
g2f g2d | de=f e2d | def gde | dcB A2d |\
edc Bcd | edc Bcd | (e/f/g)G c2B | AGF G2 |]
% - - - - - - - - - - - - - - - - - - - - - - - - - - - - -
V: 2 clef=bass middle=d
z |\
g3 G3 | d3- d>ef | g3 c3 | d3 G3 |\
g3 G3 | d3- d>ef | g3 c3 | d3 G2 |]
z |\
G2z g2z | G3 c2z | g2z G2z | B2c d2z |\
c3 g3 | c3 g3 | c'2b a2g | d'2d g2 |]

%%sep 2 1 500
%%sep 1 1 500

